X:109
T:Tobacco - Roberts
C:Taken down from Anne Roberts, Scobbetor, by F.W.B. Sept. 30, 1890
%%VWML:SBG-1-1-507-0
F:http://www.vwml.org/record/SBG/1/1/507
Z:Original Sibleius Transcription by Martin and Shan Graebe
L:1/8
M:3/4
I:linebreak $
K:C
C | CG, C3 G | FF E2 C/D/ | EE/D/ C B,A,G, | CE D3 D |$ GG/F/EDCB, | A,F/E/ DC B,C | CG, C2 EG | 
FE D4 | C6 |] 
T:Tobacco - Potter
T:Taken down from Jas. Potter, Hartland, Post Bridge by H.Fl.S. Sept. 22. 1890
L:1/8
M:3/4
I:linebreak $
K:G
G2 | GD G3 d | cc B3 G/A/ | BA G2 EF | GB A2 Bc |$ dd/c/ BA GF | Ec/B/ A3 F | GD G2 Bd | 
cB A2 G2 |] 
T:Tobacco - old man Newton Abbot
T:Taken down from an old man near Newton Abbot. & sent me.
L:1/8
M:4/4
I:linebreak $
K:F
E | F3 E D2 A2 | BA GF c3 c | f3 e d2 c2 | cB AB A3 A |$ A2 B c (dc) (BA) | BA GF G2 F E | 
D2 d d d2 ^c2 | d2 d4 z2 |] 
T:Tobacco - Pills to purge melancholy
T:Same as tune in “Pills to purge Melancholy” III. 292.
L:1/8
M:4/4
I:linebreak $
K:Bb
A | B3 A G2 ff | gf ed f3 f | b3 a g2 f2 | fed3/2 e/ d3 d |$ d2 ef gf ed | ed cB c2 BA | 
G2 g2 g3 ^f | g2 g4 z  |] 
T:Tobacco - Westaway
T:Taken down from H. Westaway, Belstone by F.W.B. Oct 1894.
L:1/8
M:4/4
I:linebreak $
K:G
D2 | G2 Dc !fermata!B3 (3A/G/B/ | c2 B2 A3 G | G2 Dc BAGB | c2 B2 A2 Bc | d2 dc cBAB |$ 
w: ||||||
c2 cB BA GD | G6 FG | A6 Bc | d(ge)c B2 A2 | G4  |] 
w: * * * * * Think on||* When you|smo- _ ke _ To- bac-|co|


